html/dist/img/svg/instagram.svg

<svg width="102" height="102" viewBox="0 0 102 102" fill="none" xmlns="http://www.w3.org/2000/svg">
<path d="M41.273 31.0624C34.9202 31.0624 29.7684 36.2142 29.7684 42.5671V60.9744C29.7684 67.3273 34.9202 72.4791 41.273 72.4791H59.6804C66.0333 72.4791 71.1851 67.3273 71.1851 60.9744V42.5671C71.1851 36.2142 66.0333 31.0624 59.6804 31.0624H41.273ZM64.2823 35.6643C65.5524 35.6643 66.5832 36.6951 66.5832 37.9652C66.5832 39.2353 65.5524 40.2661 64.2823 40.2661C63.0122 40.2661 61.9814 39.2353 61.9814 37.9652C61.9814 36.6951 63.0122 35.6643 64.2823 35.6643ZM50.4767 40.2661C56.8296 40.2661 61.9814 45.4179 61.9814 51.7707C61.9814 58.1236 56.8296 63.2754 50.4767 63.2754C44.1239 63.2754 38.9721 58.1236 38.9721 51.7707C38.9721 45.4179 44.1239 40.2661 50.4767 40.2661ZM50.4767 44.868C48.646 44.868 46.8903 45.5952 45.5957 46.8898C44.3012 48.1843 43.574 49.94 43.574 51.7707C43.574 53.6015 44.3012 55.3572 45.5957 56.6517C46.8903 57.9463 48.646 58.6735 50.4767 58.6735C52.3075 58.6735 54.0632 57.9463 55.3577 56.6517C56.6523 55.3572 57.3795 53.6015 57.3795 51.7707C57.3795 49.94 56.6523 48.1843 55.3577 46.8898C54.0632 45.5952 52.3075 44.868 50.4767 44.868Z" fill="#FF4978"/>
</svg>

<svg width="102" height="102" viewBox="0 0 102 102" fill="none" xmlns="http://www.w3.org/2000/svg"><path d="M41.273 31.062c-6.353 0-11.505 5.152-11.505 11.505v18.407c0 6.353 5.152 11.505 11.505 11.505H59.68c6.353 0 11.505-5.152 11.505-11.505V42.567c0-6.353-5.152-11.505-11.505-11.505H41.273zm23.01 4.602a2.302 2.302 0 11-.002 4.604 2.302 2.302 0 01.001-4.604zm-13.806 4.602c6.353 0 11.504 5.152 11.504 11.505 0 6.353-5.151 11.504-11.504 11.504s-11.505-5.151-11.505-11.504 5.152-11.505 11.505-11.505zm0 4.602a6.903 6.903 0 100 13.805 6.903 6.903 0 000-13.805z" fill="#FF4978"/></svg>
